X: 251
T: Dance Of The Honeybees
R: barndance
M: 4/4
L: 1/8
K: Dmaj
B AG|: F2 EF DFAF|G2 FG E3 F|GFGA (3Bcd ed|cege cAGE|
FGEF DFAF|G2 FG E3 F|GFGA (3Bcd ed|1cAGE DBAG:|2cAGE DABc||
dAaA fAdA|GFEF DEFA|BeeA BeeA|(3Bcd ef gece|
dAaA fAdA|GFEF DEFA|(3Bcd ef gfed|1cAGE DEFA:|2cAGE DABc||

